X: 2729
T: Banks Of Newfoundland, The
R: jig
M: 6/8
K: Gmajor
B2G AGE|GBd g2e|ded B2A|BGE EGA|
B2G AGE|GBd g2e|ded B2A|BGF G3:|
B2g gfg|e2a aga|bge dBG|BdB AGA|
B2g gfg|e2a aga|bge dBA|AGF G3|
B2g gfg|e2a aga|bge dBG|BdB AGA|
B2G AGE|GBd g2e|ded B2A|BGF G3||

